svg/fluentui-system-icons/ic_fluent_contact_card_ribbon_48_regular.svg

<svg width="48" height="48" viewBox="0 0 48 48" fill="none" xmlns="http://www.w3.org/2000/svg">
<path d="M19 20C19 21.6569 17.6569 23 16 23C14.3431 23 13 21.6569 13 20C13 18.3431 14.3431 17 16 17C17.6569 17 19 18.3431 19 20ZM11 26.5C11 25.6716 11.6716 25 12.5 25H19.5C20.3284 25 21 25.6716 21 26.5V27C21 27 21 31 16 31C11 31 11 27 11 27V26.5ZM25 20.25C25 19.5596 25.5596 19 26.25 19H35.75C36.4404 19 37 19.5596 37 20.25C37 20.6285 36.8317 20.9678 36.5659 21.197C36.1853 21.2757 35.813 21.3772 35.4506 21.5H26.25C25.5596 21.5 25 20.9404 25 20.25ZM41.5 12.25V21.4834C42.4008 21.783 43.2417 22.2138 44 22.7531V12.25C44 9.90279 42.0972 8 39.75 8H8.25C5.90279 8 4 9.90279 4 12.25V35.75C4 38.0972 5.90279 40 8.25 40H31V37.5H8.25C7.2835 37.5 6.5 36.7165 6.5 35.75V12.25C6.5 11.2835 7.2835 10.5 8.25 10.5H39.75C40.7165 10.5 41.5 11.2835 41.5 12.25ZM26.25 26H30.1313C29.7137 26.775 29.4006 27.6146 29.2109 28.5H26.25C25.5596 28.5 25 27.9404 25 27.25C25 26.5596 25.5596 26 26.25 26ZM32.4995 26C31.9441 26.7393 31.5223 27.5845 31.2696 28.5C31.0939 29.1367 31 29.8074 31 30.5C31 33.691 32.9928 36.4165 35.8018 37.5C36.6391 37.8229 37.5489 38 38.5 38C40.6731 38 42.6303 37.0758 44 35.5991C45.2412 34.2609 46 32.4691 46 30.5C46 28.5309 45.2412 26.7391 44 25.4009C43.3026 24.6491 42.4529 24.0404 41.5 23.6241C40.5813 23.2227 39.5667 23 38.5 23C36.0463 23 33.8678 24.1783 32.4995 26ZM38.5584 40C39.7732 39.9927 40.9339 39.7574 42 39.3347C42.03 39.3228 42.0599 39.3107 42.0897 39.2986C42.7694 39.021 43.4097 38.6669 44 38.2471V44.9579C44 45.8078 43.0357 46.2989 42.3483 45.7989L38.5 43.0002L34.6517 45.7989C33.9643 46.2989 33 45.8078 33 44.9579V38.2471C33.6162 38.6853 34.2869 39.0519 35 39.3347C36.0661 39.7574 37.2268 39.9927 38.4416 40C38.4611 40.0001 38.4805 40.0002 38.5 40.0002C38.5195 40.0002 38.5389 40.0001 38.5584 40Z" fill="#212121"/>
</svg>

<svg xmlns="http://www.w3.org/2000/svg" width="48" height="48"><path d="M19 20a3 3 0 1 1-6 0 3 3 0 0 1 6 0Zm-8 6.5a1.5 1.5 0 0 1 1.5-1.5h7a1.5 1.5 0 0 1 1.5 1.5v.5s0 4-5 4-5-4-5-4v-.5Zm14-6.25c0-.69.56-1.25 1.25-1.25h9.5a1.25 1.25 0 0 1 .816 2.197 9.44 9.44 0 0 0-1.115.303H26.25c-.69 0-1.25-.56-1.25-1.25Zm16.5-8v9.233c.9.3 1.742.73 2.5 1.27V12.25A4.25 4.25 0 0 0 39.75 8H8.25A4.25 4.25 0 0 0 4 12.25v23.5A4.25 4.25 0 0 0 8.25 40H31v-2.5H8.25a1.75 1.75 0 0 1-1.75-1.75v-23.5c0-.966.784-1.75 1.75-1.75h31.5c.967 0 1.75.784 1.75 1.75ZM26.25 26h3.881a9.434 9.434 0 0 0-.92 2.5H26.25a1.25 1.25 0 1 1 0-2.5Zm6.25 0a7.471 7.471 0 0 0-1.5 4.5 7.503 7.503 0 0 0 4.802 7 7.48 7.48 0 0 0 2.698.5 7.48 7.48 0 0 0 5.5-2.4 7.473 7.473 0 0 0 2-5.1c0-1.97-.759-3.76-2-5.1a7.474 7.474 0 0 0-5.5-2.4 7.488 7.488 0 0 0-6 3Zm6.058 14A9.472 9.472 0 0 0 44 38.247v6.71a1.04 1.04 0 0 1-1.652.842L38.5 43l-3.848 2.8A1.04 1.04 0 0 1 33 44.958v-6.71A9.472 9.472 0 0 0 38.442 40h.058l.058-.001Z"/></svg>
